X:285
T: Peacock's Feather, The
R: hornpipe
M: 4/4
L: 1/8
K: D
| FEED A2 AB | defd Bdef | ~g2fd efdB | AFED E2 DE |
|FEED A2 AB | defd Bdef | (3gfe fd BedB |1 AFEF D2 z2 :|2 Adfe de ||
|: fg |afge fdec | defd Bdef | ~g2fd efdB | AFED E2 DE |
|FEED A2 AB | defd Bdef | (3gfe fd BedB |1 Adfe de :|2 AFEF D4 ||
